!!!!SEGMENT: T528_Mau-w9p7-8h4m11-18.krn
!!!COM: Martinů, Bohuslav (Jan)
!!!OTL: single movement work
!!!AGN: Orchestral
!!!AGN-sub: Concerto
!!!CNT: Czech
!!!ODT: 1924
!!!OPR: Concertino for Violincello, Wind Instruments, Piano and Percussion
!!!filename: T528_Mau-w9p7-8h4m11-18.krn
**kern	**kern	**dynam	**kern	**dynam	**kern	**dynam	**kern	**dynam	**kern	**dynam	**kern	**dynam	**kern	**dynam	**kern	**dynam
*grp:A	*grp:A	*	*grp:B	*	*grp:A	*	*grp:B	*	*grp:B	*	*grp:B	*	*grp:B	*	*grp:A	*
*part8	*part8	*	*part7	*	*part6	*	*part5	*	*part4	*	*part3	*part 3	*part2	*	*part1	*
*staff9	*staff8	*	*staff7	*	*staff6	*	*staff5	*	*staff4	*	*staff3	*	*staff2	*	*staff1	*
*ICklav	*ICklav	*	*ICstr	*	*ICbras	*	*ICbras	*	*ICww	*	*ICww	*	*ICww	*	*ICww	*
*Ipiano	*Ipiano	*	*Icello	*	*Itromp	*	*Icor	*	*Ifagot	*	*Iclars	*	*Ioboe	*	*Ipicco	*
*I"Piano	*I"Piano	*	*I"Solo Violoncello	*	*I"Trumpet in Bb	*	*I"Horn in F	*	*I"Bassoon	*	*I"Clarinet in Bb 1	*	*I"Oboe 1, 2	*	*I"Piccolo	*
*I'pf	*I'pf	*	*I'vc	*	*I'tp	*	*I'cor-fr	*	*I'bn	*	*I'cl	*	*I'ob	*	*I'picc	*
*clefG2	*clefG2	*	*clefG2	*	*clefG2	*	*clefG2	*	*clefF4	*	*clefG2	*	*clefG2	*	*clefG2	*
*	*	*	*	*	*ITrd1c2	*	*ITrd4c7	*	*	*	*ITrd1c2	*	*	*	*ITrd-7c-12	*
*k[]	*k[]	*	*k[]	*	*k[]	*	*k[b-]	*	*k[]	*	*k[]	*	*k[]	*	*k[]	*
*C:	*C:	*	*C:	*	*C:	*	*F:	*	*C:	*	*C:	*	*C:	*	*C:	*
!!LO:TX:tempo:a:t=[Moderato]\n{[quarter]=72}
*M3/4	*M3/4	*	*M3/4	*	*M3/4	*	*M3/4	*	*M3/4	*	*M3/4	*	*M3/4	*	*M3/4	*
*	*8va	*	*	*	*	*	*	*	*	*	*	*	*	*	*	*
=1	=1	=1	=1	=1	=1	=1	=1	=1	=1	=1	=1	=1	=1	=1	=1	=1
!	!	!LO:DY:ed=brack	!	!LO:DY:ed=brack	!	!	!	!	!	!LO:DY:ed=brack	!LO:TX:a:t=1.	!LO:DY:ed=brack	!LO:TX:a:t=1.	!LO:DY:ed=brack	!	!
8.fL	8.ffL 8.ccc	mf	4cc)	ff	4%3r	.	4%3r	.	8BB-X'L	pp	8B-'L	pp	8b-X'L	pp	4%3r	.
.	.	.	.	.	.	.	.	.	8C'J	.	8c'J	.	8cc'J	.	.	.
16gJk	16ggJk 16ddd	.	.	.	.	.	.	.	.	.	.	.	.	.	.	.
8f	8ff 8ccc	.	(8b-XL	>	.	.	.	.	8F^L	.	8f^L	.	8ff^L	.	.	.
8r	8r	.	16aL	.	.	.	.	.	8C'J	.	8c'J	.	8cc'J	.	.	.
.	.	.	16gJJ	.	.	.	.	.	.	.	.	.	.	.	.	.
12fL	12ff/L 12ccc/	.	4f	]	.	.	.	.	8D^L\	.	8d^L	.	8dd^L	.	.	.
12g	12gg 12ddd	.	.	.	.	.	.	.	.	.	.	.	.	.	.	.
.	.	.	.	.	.	.	.	.	8C'J	.	8c'J	.	8cc'J	.	.	.
12b-XJ	12bb-XJ 12fff	.	.	.	.	.	.	.	.	.	.	.	.	.	.	.
=2	=2	=2	=2	=2	=2	=2	=2	=2	=2	=2	=2	=2	=2	=2	=2	=2
8.fL	8.ffL 8.ccc	.	4g)	.	4%3r	.	4r	.	8BB-X'L	.	8B-'L	.	8b-X'L	.	4%3r	.
.	.	.	.	.	.	.	.	.	8AA^J	.	8A^J	.	8a^J	.	.	.
16gJk	16ggJk 16ddd	.	.	.	.	.	.	.	.	.	.	.	.	.	.	.
12fL	12ffL 12ccc	.	(4f	<	.	.	4r	.	8C'L	.	8d'L	.	8cc'L	.	.	.
12f	12ff 12ccc	.	.	.	.	.	.	.	.	.	.	.	.	.	.	.
.	.	.	.	.	.	.	.	.	8GG'J	.	8G'J	.	8g'J	.	.	.
12gJ	12ggJ 12ddd	.	.	.	.	.	.	.	.	.	.	.	.	.	.	.
8f	8ff 8ccc	.	4c)	[[	.	.	8F^L	pp	8FF^L	.	8F^	.	8f^L	.	.	.
8r	8r	.	.	.	.	.	8GJ	.	8GG'J	.	8r'	.	8g'J	.	.	.
=3	=3	=3	=3	=3	=3	=3	=3	=3	=3	=3	=3	=3	=3	=3	=3	=3
12fL	12ff/L 12ccc/	.	(8gL	<	4%3r	.	8A^L	.	8AA^L	.	4%3r	.	8a^L/	.	4%3r	.
12g	12gg 12ddd	.	.	.	.	.	.	.	.	.	.	.	.	.	.	.
.	.	.	8aJ	.	.	.	8c'J	.	8C'J	.	.	.	8cc'J	.	.	.
12b-XJ	12bb-XJ 12fff	.	.	.	.	.	.	.	.	.	.	.	.	.	.	.
12fL	12ff/L 12ccc/	.	8b-XL	[	.	.	8B-'L	.	8BB-X'L	.	.	.	8b-X'L	.	.	.
12f	12ff 12ccc	.	.	>	.	.	.	.	.	.	.	.	.	.	.	.
.	.	.	16aL	.	.	.	8A^J	.	8AA^J	.	.	.	8a^J	.	.	.
12gJ	12ggJ 12ddd	.	.	.	.	.	.	.	.	.	.	.	.	.	.	.
.	.	.	16gJJ)	.	.	.	.	.	.	.	.	.	.	.	.	.
8.fL	8.ff/L 8.ccc/	.	(4f	]	.	.	8F'L	.	8FF'L	.	.	.	8f'L	.	.	.
.	.	.	.	<	.	.	8G'J	.	8GG'J	.	.	.	8g'J	.	.	.
16b-Jk	16bb-Jk 16fff	.	.	.	.	.	.	.	.	.	.	.	.	.	.	.
=4	=4	=4	=4	=4	=4	=4	=4	=4	=4	=4	=4	=4	=4	=4	=4	=4
8.fL	8.ffL 8.ccc	.	4g	[	4%3r	.	8F	.	8FF	.	4r	.	8f	.	4%3r	.
.	.	.	.	.	.	.	8r	.	8r'	.	.	.	8r'	.	.	.
16gJk	16ggJk 16ddd	.	.	.	.	.	.	.	.	.	.	.	.	.	.	.
12fL	12ffL 12ccc	.	2c)	.	.	.	[2E-X	.	8E-X^L	.	8e-^L	.	8ee-X^L	.	.	.
12f	12ff 12ccc	.	.	.	.	.	.	.	.	.	.	.	.	.	.	.
.	.	.	.	.	.	.	.	.	8F'J	.	8f'J	.	8ff'J	.	.	.
12gJ	12ggJ 12ddd	.	.	.	.	.	.	.	.	.	.	.	.	.	.	.
8f	8ff 8ccc	.	.	.	.	.	.	.	8A-X^L	.	8a-X^L	.	8aa-X^L	.	.	.
8r	8r	.	.	.	.	.	.	.	8G'J	.	8g'J	.	8gg'J	.	.	.
!!pagebreak:original
=5	=5	=5	=5	=5	=5	=5	=5	=5	=5	=5	=5	=5	=5	=5	=5	=5
*	*	*	*	*	*	*	*	*	*	*	*	*	*^	*	*	*
*grp:A	*grp:A	*	*grp:B	*	*grp:A	*	*grp:B	*	*grp:B	*	*grp:B	*	*grp:B	*grp:A	*	*grp:A	*
!	!	!	!	!	!	!	!	!	!	!	!LO:TX:a:t=1.	!	!	!	!LO:DY:ed=brack	!	!
12a-XL	12aa-X\L 12eee-X\	.	(4d-X	f <	4%3r	.	2E-]	.	8F'L	.	8f'L	.	8ff'L	8.a-XL	pp	4%3r	.
12a-	12aa- 12eee-	.	.	.	.	.	.	.	.	.	.	.	.	.	.	.	.
.	.	.	.	.	.	.	.	.	8E-X^J	.	8e-^J	.	8ee-X^J	.	.	.	.
12b-XJ	12bb-XJ 12fff	.	.	.	.	.	.	.	.	.	.	.	.	.	.	.	.
.	.	.	.	.	.	.	.	.	.	.	.	.	.	16b-XJk	.	.	.
8.a-L	8.aa-\L 8.eee-\	.	4e-X	.	.	.	.	.	8E-'L	.	8e-'L	.	8ee-'L	12a-L	.	.	.
.	.	.	.	.	.	.	.	.	.	.	.	.	.	12a-	.	.	.
.	.	.	.	.	.	.	.	.	8FJ	.	8fJ	.	8ffJ	.	.	.	.
.	.	.	.	.	.	.	.	.	.	.	.	.	.	12b-J	.	.	.
16b-Jk	16bb-Jk 16fff	.	.	.	.	.	.	.	.	.	.	.	.	.	.	.	.
12a-L	12aa-\L 12eee-\	.	8fL	[	.	.	4r	.	8C^L	.	8c^L	.	8cc^L	8a-	.	.	.
12a-	12aa- 12eee-	.	.	.	.	.	.	.	.	.	.	.	.	.	.	.	.
.	.	.	16e-L	.	.	.	.	.	8D-X'J	.	8d-X'J	.	8dd-X'J	8r	.	.	.
12b-J	12bb-J 12fff	.	.	.	.	.	.	.	.	.	.	.	.	.	.	.	.
.	.	.	16d-JJ	.	.	.	.	.	.	.	.	.	.	.	.	.	.
=6	=6	=6	=6	=6	=6	=6	=6	=6	=6	=6	=6	=6	=6	=6	=6	=6	=6
12a-XL	12aa-X\L 12eee-X\	.	4c)	.	[2.e-	pp	4%3r	.	8E-X^L	.	8e-^L	.	8ee-X^L	4r	.	4%3r	.
12a-	12aa- 12eee-	.	.	.	.	.	.	.	.	.	.	.	.	.	.	.	.
.	.	.	.	.	.	.	.	.	8F'J	.	8f'J	.	8ff'J	.	.	.	.
12b-XJ	12bb-XJ 12fff	.	.	.	.	.	.	.	.	.	.	.	.	.	.	.	.
8.a-L	8.aa-\L 8.eee-\	.	(4d-X	.	.	.	.	.	8A-X^L	.	8a-X^L	.	8aa-X^L	12a-XL	.	.	.
.	.	.	.	.	.	.	.	.	.	.	.	.	.	12a-	.	.	.
.	.	.	.	.	.	.	.	.	8G'J	.	8g'J	.	8gg'J	.	.	.	.
.	.	.	.	.	.	.	.	.	.	.	.	.	.	12b-XJ	.	.	.
16dd-XJk	16ddd-XJk 16aaa-X	.	.	.	.	.	.	.	.	.	.	.	.	.	.	.	.
8a-	8aa- 8eee-	.	4B-X	.	.	.	.	.	8F'L	.	8f'L	.	8ff'L	8.a-L	.	.	.
8r	8r	.	.	.	.	.	.	.	8E-^J	.	8e-^J	.	8ee-^J	.	.	.	.
.	.	.	.	.	.	.	.	.	.	.	.	.	.	16b-Jk	.	.	.
=7	=7	=7	=7	=7	=7	=7	=7	=7	=7	=7	=7	=7	=7	=7	=7	=7	=7
12r	12r	.	4c)	.	4e-]	.	4%3r	.	8E-X'L	.	8e-'L	.	8ee-X'L	12a-XL	.	4r	.
!LO:TUP:b	!	!	!	!	!	!	!	!	!	!	!	!	!	!	!	!	!
12a-XL/	12aa-XL 12eee-X	.	.	.	.	.	.	.	.	.	.	.	.	12a-	.	.	.
.	.	.	.	.	.	.	.	.	8F'J	.	8f'J	.	8ff'J	.	.	.	.
12dd-XJ	12ddd-XJ 12aaa-X	.	.	.	.	.	.	.	.	.	.	.	.	12b-XJ	.	.	.
8.a-L	8.aa-L 8.eee-	.	(8d-XL	.	4r	.	.	.	8C^L	.	8c^L	.	8cc^L	8a-	.	8.r	.
.	.	.	16cL	.	.	.	.	.	8D-X'J	.	8d-X'J	.	8dd-X'J	8r	.	.	.
16b-XJk	16bb-XJk 16fff	.	16B-XJJ	.	.	.	.	.	.	.	.	.	.	.	.	16bb-X	p
12a-L	12aa-L 12eee-	.	4c)	.	4r	.	.	.	8E-^L	.	8e-^L	.	8ee-^L	4r	.	12aa-XL	.
12a-	12aa- 12eee-	.	.	.	.	.	.	.	.	.	.	.	.	.	.	12aa-	.
.	.	.	.	.	.	.	.	.	8F'J	.	8f'J	.	8ff'J	.	.	.	.
12b-J	12bb-J 12fff	.	.	.	.	.	.	.	.	.	.	.	.	.	.	12bb-J	.
=8	=8	=8	=8	=8	=8	=8	=8	=8	=8	=8	=8	=8	=8	=8	=8	=8	=8
8.a-XL	8.aa-XL 8.eee-X	.	(8e-XL	.	4%3r	.	4%3r	.	8A-X'L	.	8a-X'L	.	8aa-X'L	4r	.	8.aa-XL/	.
.	.	.	8d-XJ	.	.	.	.	.	8G^J	.	8g^J	.	8gg^J	.	.	.	.
16b-XJk	16bb-XJk 16fff	.	.	.	.	.	.	.	.	.	.	.	.	.	.	16ddd-XJk	.
12a-L	12aa-L 12eee-	.	4c)	.	.	.	.	.	8F'L	.	8f'L	.	8ff'L	8.a-XL	.	8aa-	.
12a-	12aa- 12eee-	.	.	.	.	.	.	.	.	.	.	.	.	.	.	.	.
.	.	.	.	.	.	.	.	.	8E-X'J	.	8e-'J	.	8ee-X'J	.	.	8r	.
12b-J	12bb-J 12fff	.	.	.	.	.	.	.	.	.	.	.	.	.	.	.	.
.	.	.	.	.	.	.	.	.	.	.	.	.	.	16b-XJk	.	.	.
8a-	8aa- 8eee-	.	(8d-L	.	.	.	.	.	8F^L	.	8f^L	.	8ff^L	8a-	.	8.r	.
*	*X8va	*	*	*	*	*	*	*	*	*	*	*	*	*	*	*	*
8r	8r	.	16cL	.	.	.	.	.	8C'J	.	8c'J	.	8cc'J	8r	.	.	.
.	.	.	16B-XJJ)	.	.	.	.	.	.	.	.	.	.	.	.	16bb-X	.
=	=	=	=	=	=	=	=	=	=	=	=	=	=	=	=	=	=
*-	*-	*-	*-	*-	*-	*-	*-	*-	*-	*-	*-	*-	*-	*-	*-	*-	*-
!!!system-decoration: [(s1,s2,s3,s4)][(s5,s6)][(s7)][({(s8,s9)})]
!!!EED: Gabriella Vici
!!!EEV: 2022/01/19
!!!EED2: Jason Lee
!!!EEV2: 2022/05/03
!!!EED3: Bryan Bell
!!!Suter_Work_ID: Mau-9
!!!Suter_Example_Number: 528
!!!Suter_Example_ID: Mau-9/7-8/[4]11-18
!!!Premiere_Location: Prague,Czech Republic
!!!Other_Tsigs: none
!!!Full_Unit_Duration: 14:13
!!!First_Publication_Year: 1964
!!!First_Public_Performance_Year: 1949
!!!Example_Total_Measures: 8
!!!Example_Timestamp_Duration: 20
!!!Example_Start_Tsig_Type: simple triple
!!!Example_Start_Tsig_Mean_Beat_Rate: 72
!!!Example_Start_Tsig_Beat_Rate: 72
!!!Example_Start_Tsig_Beat: quarter
!!!Example_Start_Tsig: 3/4
!!!Example_Start_Timestamp: 2:55
!!!Example_Start_Tempo_Expression: [Moderato]
!!!Example_Start_Notated_Beat_Rate: {72}
!!!Example_Start_Notated_Beat: {quarter}
!!!Example_Start_Measure: 100
!!!Example_Metadata_Validated: Y
!!!Example_End_Timestamp: 3:15
!!!Example_End_Measure: 107
!!!Example_Dataset: T
!!!Editorial_Comments: No notated tempo. Example Start Notated Beat and Example Start Notated Beat Rate {quarter=72} calculated from recording (https://ubc-nml3-naxosmusiclibrary-com.eu1.proxy.openathens.net/catalogue/item.asp?cid=TROY628); tempo for audio synthesis {quarter=76} was calculated using a Digital Audio Workstation (DAW). Example Start Tempo Expression [Moderato] based on most recent notated tempo expression (SWFU, m. 99). Suter's example is a piano reduction.
!!!Death_Place: Liestal,Switzerland
!!!Death_Date: 28-Aug-1959
!!!Changing_Tsig: no
!!!Birth_Place: Polička,Bohemia
!!!Birth_Date: 8-Dec-1890
!!!Audio_Example_Quarter_Note_Tempo:
!!!Audio_Example_Duration:
!!!EEV3: 2023/06/02
